assets/img/braze_icons/align-left.svg

<svg fill="none" height="24" viewBox="0 0 24 24" width="24" xmlns="http://www.w3.org/2000/svg"><g clip-rule="evenodd" fill="#801ed7" fill-rule="evenodd"><path d="m2 10c0-.55228.44772-1 1-1h13c.5523 0 1 .44772 1 1 0 .5523-.4477 1-1 1h-13c-.55228 0-1-.4477-1-1z"/><path d="m2 6c0-.55228.44772-1 1-1h17c.5523 0 1 .44772 1 1s-.4477 1-1 1h-17c-.55228 0-1-.44772-1-1z"/><path d="m2 14c0-.5523.44772-1 1-1h17c.5523 0 1 .4477 1 1s-.4477 1-1 1h-17c-.55228 0-1-.4477-1-1z"/><path d="m2 18c0-.5523.44772-1 1-1h13c.5523 0 1 .4477 1 1s-.4477 1-1 1h-13c-.55228 0-1-.4477-1-1z"/></g></svg>

<svg width="24" height="24" viewBox="0 0 24 24" fill="none" xmlns="http://www.w3.org/2000/svg">
<path fill-rule="evenodd" clip-rule="evenodd" d="M2 10C2 9.44772 2.44772 9 3 9H16C16.5523 9 17 9.44772 17 10C17 10.5523 16.5523 11 16 11H3C2.44772 11 2 10.5523 2 10Z" fill="#801ED7"/>
<path fill-rule="evenodd" clip-rule="evenodd" d="M2 6C2 5.44772 2.44772 5 3 5H20C20.5523 5 21 5.44772 21 6C21 6.55228 20.5523 7 20 7H3C2.44772 7 2 6.55228 2 6Z" fill="#801ED7"/>
<path fill-rule="evenodd" clip-rule="evenodd" d="M2 14C2 13.4477 2.44772 13 3 13H20C20.5523 13 21 13.4477 21 14C21 14.5523 20.5523 15 20 15H3C2.44772 15 2 14.5523 2 14Z" fill="#801ED7"/>
<path fill-rule="evenodd" clip-rule="evenodd" d="M2 18C2 17.4477 2.44772 17 3 17H16C16.5523 17 17 17.4477 17 18C17 18.5523 16.5523 19 16 19H3C2.44772 19 2 18.5523 2 18Z" fill="#801ED7"/>
</svg>
